icons/ltr.svg

<svg width="14" height="12" viewBox="0 0 14 12" xmlns="http://www.w3.org/2000/svg"><path d="M9,2 L9,11 C9,11.5522847 8.55228475,12 8,12 C7.44771525,12 7,11.5522847 7,11 L7,6 L6,6 C4.34314575,6 3,4.65685425 3,3 C3,1.34314575 4.34314575,0 6,0 L13,0 C13.5522847,0 14,0.44771525 14,1 C14,1.55228475 13.5522847,2 13,2 L12,2 L12,11 C12,11.5522847 11.5522847,12 11,12 C10.4477153,12 10,11.5522847 10,11 L10,2 L9,2 Z M1.65685425,9 L0.284271247,10.3592455 C-0.0947570825,10.7345908 -0.0947570825,11.3431458 0.284271247,11.718491 C0.663299577,12.0938363 1.27782592,12.0938363 1.65685425,11.718491 L3.71572875,9.67962276 C4.09475708,9.30427747 4.09475708,8.69572253 3.71572875,8.32037724 L1.65685425,6.28150896 C1.27782592,5.90616368 0.663299577,5.90616368 0.284271247,6.28150896 C-0.0947570825,6.65685425 -0.0947570825,7.2654092 0.284271247,7.64075448 L1.65685425,9 L1.65685425,9 Z M7,2 L6,2 C5.44771525,2 5,2.44771525 5,3 C5,3.55228475 5.44771525,4 6,4 L7,4 L7,2 Z"/></svg>

<svg width="14" height="12" xmlns="http://www.w3.org/2000/svg" fill="currentColor"><path d="M9 2v9a1 1 0 0 1-2 0V6H6a3 3 0 1 1 0-6h7a1 1 0 0 1 0 2h-1v9a1 1 0 0 1-2 0V2H9ZM1.657 9 .284 10.36a.955.955 0 0 0 0 1.358.977.977 0 0 0 1.373 0L3.716 9.68a.955.955 0 0 0 0-1.36l-2.06-2.038a.977.977 0 0 0-1.372 0 .955.955 0 0 0 0 1.359L1.657 9ZM7 2H6a1 1 0 1 0 0 2h1V2Z"/></svg>
